X:336
T: Genzhe taiyang yilu lai
N: C1215
O: China,Sichuan
S: MM,]
N: Notenbeilage kopiert
N: Wenig Verzierungen, Glissandi. Grundtonangabe fehlt.
R: Shange]
M: 4/4
L: 1/16
K: A
z2af | e2fab8b2c2 | a2b2f8
z2ba | a2b2b2a2f6-fe | e8
a2f2a2ff | e2a2f4
faf2a2f2 | f2a2c2z2
faefe2f2 | f2eaf4
a2f2eaf2 | f2a2c2z2
z2ff | e2fab8b2c2 | a2b2f8
z2ba | a2b2b2a2f6-fe | e8

@@@ Tune index: 6337
